resources/svg/screen-alt-2.svg

<svg xmlns="http://www.w3.org/2000/svg" viewBox="0 0 15 15" fill="currentColor"><path fill-rule="evenodd" clip-rule="evenodd" d="M1.5 0C0.671573 0 0 0.671573 0 1.5V9.5C0 10.3284 0.671574 11 1.5 11H5V14H2V15H13V14H10V11H13.5C14.3284 11 15 10.3284 15 9.5V1.5C15 0.671574 14.3284 0 13.5 0H1.5ZM6 14V11L9 11V14H6Z" fill="black"/></svg>

<svg xmlns="http://www.w3.org/2000/svg" viewBox="0 0 15 15" fill="currentColor"><path fill-rule="evenodd" clip-rule="evenodd" d="M1.5 0A1.5 1.5 0 000 1.5v8A1.5 1.5 0 001.5 11H5v3H2v1h11v-1h-3v-3h3.5A1.5 1.5 0 0015 9.5v-8A1.5 1.5 0 0013.5 0h-12zM6 14v-3h3v3H6z" fill="currentColor"/></svg>
